svgs/sharp-regular/person-running-fast.svg

<svg xmlns="http://www.w3.org/2000/svg" viewBox="0 0 512 512"><!--! Font Awesome Pro 6.6.0 by @fontawesome - https://fontawesome.com License - https://fontawesome.com/license (Commercial License) Copyright 2024 Fonticons, Inc. --><path d="M368 0a48 48 0 1 1 0 96 48 48 0 1 1 0-96zM224 112l8 0 64 0 3.2 0 3.1 .8 88 24 12.7 3.5 3.9 12.6L433.7 240l54.3 0 24 0 0 48-24 0-72 0-17.7 0-5.2-16.9-12.5-40.8-28.1 84.4 43.4 24.4 16.9 9.5-5.8 18.5L361.6 512l-50.3 0 43.9-140.6-88-49.5c-23.4-13.2-34.2-41.1-25.7-66.5L273.4 160 240 160l-57.6 43.2-3.8 2.9-28.8-38.4 3.8-2.9 64-48L224 112zm97.4 55.8L287.1 270.5c-1.2 3.6 .3 7.6 3.7 9.5l19 10.7 38.5-115.6-27-7.4zM218.5 317.1c7.7 13.3 18.9 24.7 33 32.6l4.9 2.8-18 47.9L232.6 416 216 416l-96 0-24 0 0-48 24 0 79.4 0 19.1-50.9zM16 95.8l128 0 16 0 0 32-16 0-128 0-16 0 0-32 16 0zm-16 64l16 0 64 0 16 0 0 32-16 0-64 0-16 0 0-32zm16 64l128 0 16 0 0 32-16 0-128 0-16 0 0-32 16 0z"/></svg>

<svg xmlns="http://www.w3.org/2000/svg" viewBox="0 0 512 512"><!--! Font Awesome Pro 6.4.0 by @fontawesome - https://fontawesome.com License - https://fontawesome.com/license (Commercial License) Copyright 2023 Fonticons, Inc. --><path d="M368 0a48 48 0 1 1 0 96 48 48 0 1 1 0-96zM224 112h8 64 3.2l3.1 .8 88 24 12.7 3.5 3.9 12.6L433.7 240H488h24v48H488 416 398.3l-5.2-16.9-12.5-40.8-28.1 84.4 43.4 24.4 16.9 9.5-5.8 18.5L361.6 512H311.4l43.9-140.6-88-49.5c-23.4-13.2-34.2-41.1-25.7-66.5L273.4 160H240l-57.6 43.2-3.8 2.9-28.8-38.4 3.8-2.9 64-48L224 112zm97.4 55.8L287.1 270.5c-1.2 3.6 .3 7.6 3.7 9.5l19 10.7 38.5-115.6-27-7.4zM218.5 317.1c7.7 13.3 18.9 24.7 33 32.6l4.9 2.8-18 47.9L232.6 416H216 120 96V368h24 79.4l19.1-50.9zM16 95.8H144h16v32H144 16 0v-32H16zm-16 64H16 80 96v32H80 16 0v-32zm16 64H144h16v32H144 16 0v-32H16z"/></svg>
